src/assets/images/prototype/produits-labellises/5-tablettes.svg

<svg width="372" height="437" viewBox="0 0 372 437" fill="none" xmlns="http://www.w3.org/2000/svg">
<path d="M220.025 51.5849C185.361 52.6853 60.2317 60.7553 2 64.6526C13.0044 77.7204 209.708 79.0959 240.658 80.4715C271.608 81.847 358.956 73.5937 366.521 64.6526C374.087 55.7116 263.355 50.2094 220.025 51.5849Z" fill="white" stroke="#81EC40" stroke-width="4" stroke-linejoin="round"/>
<path d="M316.833 27.1666C322.354 24.2912 333.366 25.206 338.182 26.0227L350.401 36.9993C355.893 41.9326 356.202 49.1734 355.669 52.1771C354.188 62.4538 342.333 76.7063 327.717 93.8153C314.328 109.488 294.492 133.432 285.426 134.977C278.92 137.616 263.611 125.477 262.068 124.382C262.393 124.021 260.32 123.057 255.171 118.432C248.171 112.144 250.135 103.87 254.028 97.0834C257.92 90.297 296.178 46.072 299.099 42.82C302.021 39.5681 309.932 30.7607 316.833 27.1666Z" fill="white" stroke="#81EC40" stroke-width="4" stroke-linejoin="round"/>
<path d="M301.146 13.0689C306.667 10.1936 317.679 11.1083 322.495 11.9251L334.714 22.9016C340.206 27.835 340.514 35.0757 339.982 38.0795C338.501 48.3562 326.645 62.6086 312.029 79.7176C298.64 95.3908 278.804 119.335 269.738 120.879C263.232 123.519 247.924 111.379 246.38 110.285C246.705 109.923 244.633 108.96 239.484 104.334C232.484 98.0463 234.447 89.772 238.34 82.9857C242.233 76.1993 280.491 31.9743 283.412 28.7224C286.333 25.4704 294.245 16.6631 301.146 13.0689Z" fill="white" stroke="#81EC40" stroke-width="4" stroke-linejoin="round"/>
<path d="M130.599 88.8168C124.864 91.2369 118.548 100.304 116.107 104.535L116.773 120.947C117.072 128.323 122.454 133.177 125.108 134.682C133.969 140.093 152.508 140.046 175.007 139.694C195.618 139.371 226.711 139.355 233.681 133.355C239.862 130.026 240.27 110.493 240.411 108.606C239.926 108.626 240.504 106.415 240.224 99.499C239.842 90.097 232.216 86.3345 224.506 85.0068C216.796 83.679 158.333 84.9572 153.965 85.1344C149.597 85.3116 137.768 85.7916 130.599 88.8168Z" fill="white" stroke="#81EC40" stroke-width="4" stroke-linejoin="round"/>
<path d="M129.986 73.891C124.251 76.3111 117.935 85.378 115.494 89.6089L116.16 106.021C116.459 113.397 121.841 118.251 124.494 119.756C133.356 125.167 151.894 125.12 174.394 124.768C195.005 124.446 226.097 124.429 233.068 118.429C239.249 115.1 239.657 95.5667 239.798 93.68C239.312 93.6997 239.891 91.4888 239.61 84.5732C239.229 75.1712 231.602 71.4088 223.892 70.081C216.182 68.7532 157.72 70.0314 153.352 70.2087C148.984 70.3859 137.155 70.8658 129.986 73.891Z" fill="white" stroke="#81EC40" stroke-width="4" stroke-linejoin="round"/>
<path d="M129.732 67.7426C123.997 70.1627 117.681 79.2296 115.24 83.4605L115.906 99.8725C116.205 107.249 121.587 112.103 124.24 113.608C133.102 119.019 151.641 118.972 174.14 118.62C194.751 118.297 225.844 118.281 232.814 112.281C238.995 108.952 239.403 89.4183 239.544 87.5316C239.058 87.5513 239.637 85.3404 239.356 78.4248C238.975 69.0228 231.348 65.2603 223.638 63.9325C215.928 62.6047 157.466 63.883 153.098 64.0602C148.73 64.2374 136.901 64.7174 129.732 67.7426Z" fill="white" stroke="#81EC40" stroke-width="4" stroke-linejoin="round"/>
<path d="M370 248.536V63.2773C370 63.2773 341.941 75.5344 210.396 75.5344C114.795 75.5344 2 63.2773 2 63.2773C4.70282 119.914 10.1085 238.797 10.1085 261.239V424.267C52.1062 428.502 146.705 436.441 189.119 434.324C231.532 432.207 320.725 426.737 360.02 424.267C359.397 419.68 358.523 403.201 360.02 373.983C361.892 337.46 370 284 370 248.536Z" fill="white" stroke="#81EC40" stroke-width="4" stroke-linejoin="round"/>
</svg>

<svg width="372" height="437" fill="none" xmlns="http://www.w3.org/2000/svg"><path d="M220.025 51.585C185.361 52.685 60.232 60.755 2 64.653 13.004 77.72 209.708 79.096 240.658 80.472c30.95 1.375 118.298-6.878 125.863-15.82 7.566-8.94-103.166-14.443-146.496-13.067z" fill="#fff" stroke="#81EC40" stroke-width="4" stroke-linejoin="round"/><path d="M316.833 27.167c5.521-2.876 16.533-1.961 21.349-1.144l12.219 10.976c5.492 4.934 5.801 12.174 5.268 15.178-1.481 10.277-13.336 24.53-27.952 41.638-13.389 15.673-33.225 39.617-42.291 41.162-6.506 2.639-21.815-9.5-23.358-10.595.325-.361-1.748-1.325-6.897-5.95-7-6.288-5.036-14.562-1.143-21.349 3.892-6.786 42.15-51.011 45.071-54.263 2.922-3.252 10.833-12.06 17.734-15.653z" fill="#fff" stroke="#81EC40" stroke-width="4" stroke-linejoin="round"/><path d="M301.146 13.069c5.521-2.875 16.533-1.96 21.349-1.144l12.219 10.977c5.492 4.933 5.8 12.174 5.268 15.178-1.481 10.276-13.337 24.529-27.953 41.638-13.389 15.673-33.225 39.617-42.291 41.161-6.506 2.64-21.814-9.5-23.358-10.594.325-.362-1.747-1.325-6.896-5.951-7-6.288-5.037-14.562-1.144-21.348 3.893-6.787 42.151-51.012 45.072-54.264 2.921-3.252 10.833-12.059 17.734-15.653z" fill="#fff" stroke="#81EC40" stroke-width="4" stroke-linejoin="round"/><path d="M130.599 88.817c-5.735 2.42-12.051 11.487-14.492 15.718l.666 16.412c.299 7.376 5.681 12.23 8.335 13.735 8.861 5.411 27.4 5.364 49.899 5.012 20.611-.323 51.704-.339 58.674-6.339 6.181-3.329 6.589-22.862 6.73-24.749-.485.02.093-2.191-.187-9.107-.382-9.402-8.008-13.164-15.718-14.492-7.71-1.328-66.173-.05-70.541.127-4.368.178-16.197.658-23.366 3.683z" fill="#fff" stroke="#81EC40" stroke-width="4" stroke-linejoin="round"/><path d="M129.986 73.891c-5.735 2.42-12.051 11.487-14.492 15.718l.666 16.412c.299 7.376 5.681 12.23 8.334 13.735 8.862 5.411 27.4 5.364 49.9 5.012 20.611-.322 51.703-.339 58.674-6.339 6.181-3.329 6.589-22.862 6.73-24.749-.486.02.093-2.191-.188-9.107-.381-9.402-8.008-13.164-15.718-14.492-7.71-1.328-66.172-.05-70.54.128-4.368.177-16.197.657-23.366 3.682z" fill="#fff" stroke="#81EC40" stroke-width="4" stroke-linejoin="round"/><path d="M129.732 67.743c-5.735 2.42-12.051 11.487-14.492 15.718l.666 16.412c.299 7.376 5.681 12.23 8.334 13.735 8.862 5.411 27.401 5.364 49.9 5.012 20.611-.323 51.704-.339 58.674-6.339 6.181-3.329 6.589-22.863 6.73-24.75-.486.02.093-2.19-.188-9.106-.381-9.402-8.008-13.165-15.718-14.492-7.71-1.328-66.172-.05-70.54.127-4.368.177-16.197.657-23.366 3.683z" fill="#fff" stroke="#81EC40" stroke-width="4" stroke-linejoin="round"/><path d="M370 248.536V63.277s-28.059 12.257-159.604 12.257C114.795 75.534 2 63.277 2 63.277c2.703 56.637 8.108 175.52 8.108 197.962v163.028c41.998 4.235 136.597 12.174 179.011 10.057 42.413-2.117 131.606-7.587 170.901-10.057-.623-4.587-1.497-21.066 0-50.284C361.892 337.46 370 284 370 248.536z" fill="#fff" stroke="#81EC40" stroke-width="4" stroke-linejoin="round"/></svg>
